icons/baidu-line.svg

<svg xmlns="http://www.w3.org/2000/svg" width="24" height="24" fill="none"><g clip-path="url(#a)"><g><path fill="#121212" d="M7.56442 19.28C8.4023 19.316 9.24132 19.243 10.0604 19.063C11.0391 18.8501 12.0469 18.8058 13.0404 18.932C13.5874 18.999 14.0254 19.097 14.3284 19.189C15.4064 19.464 16.9384 19.412 17.3334 18.779C17.6244 18.311 17.5864 17.992 17.3074 17.58C17.2446 17.4872 17.1737 17.4002 17.0954 17.32C16.8438 17.1188 16.5961 16.9128 16.3524 16.702C15.7423 16.1765 15.1573 15.6226 14.5994 15.042C14.0263 14.4521 13.4991 13.8192 13.0224 13.149L12.9864 13.096C12.2444 11.957 11.4284 12.029 10.9844 12.779C10.7046 13.2491 10.3851 13.6943 10.0294 14.11C9.61942 14.592 9.19942 15 8.72442 15.407C8.60142 15.512 8.22142 15.827 8.31242 15.751C8.30842 15.754 8.29542 15.766 8.36342 15.68C8.26542 15.8 7.41342 16.557 7.16342 16.842C6.64842 17.425 6.44042 17.922 6.51842 18.322C6.59042 18.698 6.73742 18.909 6.96842 19.067C7.11444 19.1645 7.27714 19.2343 7.44842 19.273L7.56442 19.28ZM14.6624 12.004C16.0384 13.974 18.3944 15.797 18.3944 15.797C18.3944 15.797 20.4574 17.545 19.0314 19.835C17.6054 22.125 13.7784 21.113 13.7784 21.113C13.7784 21.113 12.2584 20.623 10.4924 21.015C8.72742 21.41 7.20642 21.26 7.20642 21.26C7.20642 21.26 5.00042 21.015 4.55442 18.701C4.10842 16.387 6.61442 14.661 6.81242 14.417C7.00742 14.17 8.32442 13.344 9.26442 11.759C10.2044 10.173 12.8474 9.219 14.6624 12.004ZM20.2014 10.584C20.2014 11.042 20.3914 12.977 18.6484 13.016C16.9064 13.054 16.8324 11.838 16.8324 10.966C16.8324 10.053 17.0204 8.761 18.4224 8.761C19.8224 8.761 20.2014 10.13 20.2014 10.585V10.584ZM14.7714 7.807C13.5914 7.655 13.3244 6.585 13.4384 5.514C13.5344 4.639 14.5814 3.295 15.4194 3.488C16.2564 3.678 17.0194 4.788 16.8654 5.742C16.7144 6.699 15.9544 7.96 14.7714 7.807ZM9.75542 7.44C8.89542 7.44 8.19542 6.447 8.19542 5.22C8.19542 3.993 8.89442 3 9.75542 3C10.6184 3 11.3154 3.993 11.3154 5.22C11.3154 6.447 10.6184 7.44 9.75542 7.44ZM5.96242 12.006C4.26742 12.371 3.63642 10.409 3.82242 9.491C3.82242 9.491 4.02242 7.504 5.39842 7.381C6.49142 7.286 7.29642 8.482 7.37942 9.166C7.43042 9.61 7.66242 11.641 5.96242 12.006Z"/></g></g><defs><clipPath id="a"><rect width="24" height="24" fill="white"/></clipPath></defs></svg>

<svg width="24" height="24" fill="none" xmlns="http://www.w3.org/2000/svg"><g clip-path="url(#a)"><path d="M7.564 19.28a9.69 9.69 0 0 0 2.496-.217 8.802 8.802 0 0 1 2.98-.131c.547.067.985.165 1.288.257 1.078.275 2.61.223 3.005-.41.291-.468.253-.787-.026-1.199a1.882 1.882 0 0 0-.212-.26 25.612 25.612 0 0 1-2.496-2.278c-.573-.59-1.1-1.223-1.577-1.893l-.036-.053c-.742-1.139-1.558-1.067-2.002-.317-.28.47-.599.915-.955 1.331-.41.482-.83.89-1.305 1.297-.123.105-.503.42-.412.344-.004.003-.017.015.051-.071-.098.12-.95.877-1.2 1.162-.515.583-.723 1.08-.645 1.48.072.376.22.587.45.745.146.098.31.167.48.206l.116.007Zm7.098-7.276c1.376 1.97 3.732 3.793 3.732 3.793s2.063 1.748.637 4.038c-1.426 2.29-5.253 1.278-5.253 1.278s-1.52-.49-3.286-.098c-1.765.395-3.286.245-3.286.245S5 21.015 4.554 18.701c-.446-2.314 2.06-4.04 2.258-4.284.195-.247 1.512-1.073 2.452-2.658.94-1.586 3.583-2.54 5.398.245Zm5.54-1.42c0 .458.19 2.393-1.554 2.432-1.742.038-1.816-1.178-1.816-2.05 0-.913.188-2.205 1.59-2.205 1.4 0 1.78 1.369 1.78 1.824v-.001Zm-5.43-2.777c-1.18-.152-1.448-1.222-1.334-2.293.096-.875 1.143-2.219 1.981-2.026.837.19 1.6 1.3 1.446 2.254-.15.957-.91 2.218-2.094 2.065ZM9.754 7.44c-.86 0-1.56-.993-1.56-2.22 0-1.227.7-2.22 1.56-2.22.863 0 1.56.993 1.56 2.22 0 1.227-.697 2.22-1.56 2.22Zm-3.793 4.566c-1.695.365-2.326-1.597-2.14-2.515 0 0 .2-1.987 1.576-2.11 1.093-.095 1.898 1.101 1.981 1.785.051.444.283 2.475-1.417 2.84Z" /></g><defs><clipPath id="a"><path fill="#fff" d="M0 0h24v24H0z"/></clipPath></defs></svg>
